X: 822
T: The Richmond Cotillion
B: jims roots
M:4/4
L:1/8
R: reel
Q: 1/4=100
K:Dmaj
V:1 
"D" A2 f2 fgfe | d2 F2 A3 d |"A" c2 B2 A2 B2 |  ABAG FGFE |
"D" A2 f2 fgfe|  d2 F2 A3 d |"A" c2 A2 BAcA| "D" d8:|
"A" efed cdef |  a2 c2 e3 a | "E" g2 e2 fege | [1 "A" a4 a4:| [2 "A" a4 "A7" =g4|]
V:K:A 
|:"A" efed cdef | a2 c2 e4 | "E" B2 c2 d2 B2 | cdcB ABcd |
% abcbook-tune_id 6298c27979ee5ab08ca81b48


% abcbook-boost 0
% abcbook-tablature 
% abcbook-transpose 
% abcbook-lastupdated 1654178426879
% abcbook-soundfonts 
% abcbook-repeats 1


